!!!OTL: ICH SCHMISS ZWO AEDDLE RUISSEN
!!!ARE: Europa, Mitteleuropa, Deutschland; Rumaenien, Siebenbuergen
!!!SCT: E0738
!!!YEM: Copyright 1995, estate of Helmut Schaffrath.
**kern
*ICvox
*Ivox
*M4/4
*k[]
*a:
{4e
=1
4a
4a
4ccn
4ccn
=2
4b
4a
4g#}
{4g#
=3
4a
4a
4b
8b
8b
=4
2e
4r}
{8ee
8dd
=5
4ccn
8b
8a
4b
8ccn
8b
=6
2a
4r}
{4e
=7
4a
4a
4ccn
4ccn
=8
4b
4a
4g#}
{4g#
=9
4a
4a
4b
8b
8b
=10
2e
4r}
{8ee
8dd
=11
4ccn
8b
8a
4b
8ccn
8b
=12
2a
4r}
==
!!!AGN: Liebes - Lied, Leid, Klage, Tod
!!!ONB: ESAC (Essen Associative Code) Database: ERK2
!!!AMT: simple quadruple
!!!AIN: vox
!!!EED: Helmut Schaffrath
!!!EEV: 1.0
*-
